img/temp-max.svg

<svg width="44" height="44" viewBox="0 0 44 44" xmlns="http://www.w3.org/2000/svg"><title>noun_121242_cc</title><path d="M22 33.095c-6.119 0-11.097-4.978-11.097-11.096S15.881 10.904 22 10.904c6.118 0 11.096 4.978 11.096 11.096S28.118 33.095 22 33.095zm0-20.191c-5.016 0-9.097 4.08-9.097 9.096s4.081 9.096 9.097 9.096c5.016 0 9.096-4.08 9.096-9.096S27.015 12.904 22 12.904zm0 30.81a1 1 0 0 1-1-1V37.38a1 1 0 0 1 2 0v5.334a1 1 0 0 1-1 1zm0-36.095a1 1 0 0 1-1-1V1.285a1 1 0 0 1 2 0v5.334a1 1 0 0 1-1 1zM42.715 23h-5.333a1 1 0 0 1 0-2h5.333a1 1 0 0 1 0 2zM6.619 23H1.285a1 1 0 0 1 0-2h5.334a1 1 0 0 1 0 2zm.733 14.648a.999.999 0 0 1-.707-1.707l3.772-3.771a.999.999 0 1 1 1.414 1.414l-3.772 3.771a.997.997 0 0 1-.707.293zm25.524-25.525a.999.999 0 0 1-.707-1.707l3.771-3.77a.999.999 0 1 1 1.414 1.414l-3.771 3.77a.997.997 0 0 1-.707.293zm3.771 25.525a.997.997 0 0 1-.707-.293l-3.771-3.771a.999.999 0 1 1 1.414-1.414l3.771 3.771a.999.999 0 0 1-.707 1.707zM11.123 12.123a.997.997 0 0 1-.707-.293L6.645 8.06a.999.999 0 1 1 1.414-1.414l3.771 3.77a.999.999 0 0 1-.707 1.707z"/></svg>

<?xml version="1.0" encoding="UTF-8"?>
<svg width="44px" height="44px" viewBox="0 0 44 44" version="1.1" xmlns="http://www.w3.org/2000/svg" xmlns:xlink="http://www.w3.org/1999/xlink">
    <!-- Generator: Sketch 45.1 (43504) - http://www.bohemiancoding.com/sketch -->
    <title>noun_121242_cc</title>
    <desc>Created with Sketch.</desc>
    <defs></defs>
    <g id="Page-1" stroke="none" stroke-width="1" fill="none" fill-rule="evenodd">
        <g id="noun_121242_cc" fill-rule="nonzero" fill="#000000">
            <path d="M22,33.095 C15.881,33.095 10.903,28.117 10.903,21.999 C10.903,15.881 15.881,10.904 22,10.904 C28.118,10.904 33.096,15.882 33.096,22 C33.096,28.118 28.118,33.095 22,33.095 Z M22,12.904 C16.984,12.904 12.903,16.984 12.903,22 C12.903,27.016 16.984,31.096 22,31.096 C27.016,31.096 31.096,27.016 31.096,22 C31.096,16.984 27.015,12.904 22,12.904 Z" id="Shape"></path>
            <path d="M22,43.714 C21.448,43.714 21,43.266 21,42.714 L21,37.38 C21,36.828 21.448,36.38 22,36.38 C22.552,36.38 23,36.828 23,37.38 L23,42.714 C23,43.267 22.552,43.714 22,43.714 Z" id="Shape"></path>
            <path d="M22,7.619 C21.448,7.619 21,7.171 21,6.619 L21,1.285 C21,0.733 21.448,0.285 22,0.285 C22.552,0.285 23,0.733 23,1.285 L23,6.619 C23,7.171 22.552,7.619 22,7.619 Z" id="Shape"></path>
            <path d="M42.715,23 L37.382,23 C36.83,23 36.382,22.552 36.382,22 C36.382,21.448 36.83,21 37.382,21 L42.715,21 C43.267,21 43.715,21.448 43.715,22 C43.715,22.552 43.267,23 42.715,23 Z" id="Shape"></path>
            <path d="M6.619,23 L1.285,23 C0.733,23 0.285,22.552 0.285,22 C0.285,21.448 0.733,21 1.285,21 L6.619,21 C7.171,21 7.619,21.448 7.619,22 C7.619,22.552 7.171,23 6.619,23 Z" id="Shape"></path>
            <path d="M7.352,37.648 C7.096,37.648 6.84,37.55 6.645,37.355 C6.254,36.964 6.254,36.331 6.645,35.941 L10.417,32.17 C10.808,31.779 11.44,31.779 11.831,32.17 C12.222,32.561 12.222,33.194 11.831,33.584 L8.059,37.355 C7.864,37.55 7.608,37.648 7.352,37.648 Z" id="Shape"></path>
            <path d="M32.876,12.123 C32.62,12.123 32.364,12.025 32.169,11.83 C31.778,11.439 31.778,10.806 32.169,10.416 L35.94,6.646 C36.331,6.255 36.963,6.255 37.354,6.646 C37.745,7.037 37.745,7.67 37.354,8.06 L33.583,11.83 C33.388,12.025 33.132,12.123 32.876,12.123 Z" id="Shape"></path>
            <path d="M36.647,37.648 C36.391,37.648 36.135,37.55 35.94,37.355 L32.169,33.584 C31.778,33.193 31.778,32.561 32.169,32.17 C32.56,31.779 33.192,31.779 33.583,32.17 L37.354,35.941 C37.745,36.332 37.745,36.964 37.354,37.355 C37.159,37.55 36.903,37.648 36.647,37.648 Z" id="Shape"></path>
            <path d="M11.123,12.123 C10.867,12.123 10.611,12.025 10.416,11.83 L6.645,8.06 C6.254,7.67 6.254,7.037 6.645,6.646 C7.035,6.255 7.668,6.255 8.059,6.646 L11.83,10.416 C12.221,10.806 12.221,11.439 11.83,11.83 C11.635,12.025 11.379,12.123 11.123,12.123 Z" id="Shape"></path>
        </g>
    </g>
</svg>
